public/fb.svg

<svg width="49" height="49" viewBox="0 0 49 49" fill="none" xmlns="http://www.w3.org/2000/svg">
<path d="M9.108 0.9375C4.28761 0.9375 0.40625 4.81886 0.40625 9.63923V39.892C0.40625 44.7123 4.28761 48.5937 9.108 48.5937H25.5047V29.9631H20.5783V23.2555H25.5047V17.5248C25.5047 13.0225 28.4155 8.88864 35.1209 8.88864C37.8358 8.88864 39.8433 9.14927 39.8433 9.14927L39.6854 15.4131C39.6854 15.4131 37.638 15.3938 35.4038 15.3938C32.9858 15.3938 32.598 16.5079 32.598 18.3574V23.2555H39.8775L39.5603 29.9631H32.598V48.5938H39.3608C44.1811 48.5938 48.0625 44.7124 48.0625 39.892V9.63928C48.0625 4.8189 44.1811 0.937548 39.3608 0.937548H9.10795L9.108 0.9375Z" fill="white"/>
</svg>

<svg xmlns="http://www.w3.org/2000/svg" width="49" height="49" fill="none"><path fill="#fff" d="M9.108.938A8.683 8.683 0 0 0 .406 9.639v30.253a8.683 8.683 0 0 0 8.702 8.702h16.397v-18.63h-4.927v-6.708h4.927v-5.731c0-4.502 2.91-8.636 9.616-8.636 2.715 0 4.722.26 4.722.26l-.158 6.264s-2.047-.02-4.281-.02c-2.418 0-2.806 1.115-2.806 2.964v4.899h7.28l-.318 6.707h-6.962v18.63h6.763a8.683 8.683 0 0 0 8.702-8.701V9.639A8.683 8.683 0 0 0 39.36.938H9.108Z"/></svg>
